X:6
T: Shooting - Adderbury 
T: Beaux of London City
C: Trad
R: Rag Morris
K: D
L: 1/8
M: 9/8
r: 16
W: Warning: you die at the end. 
W: Morris Formula: A.(AB)5, no dance off just death. 
D |: [P:A] "G"G2 G BAG BdD |GDG B2 G "D"A2 D |  "G" G2 G BAG BdD | 
[1 "C" GDG "D" B2 A "G" G2 "D" D :| [2 "C" GDG "D" B2 A "G" G3 ] | [P:B] "G" d2 c BAG "G/B"B d2 | "D" A2 A A2 B cBc | 
"G" d2 c BAG "G/B" BdD | [1 "C" GDG "D" B2 A "G" G3 :|][2 "C" GDG "D" B2 A "G" G2 "D" D |]
